src/icons/svg/tab.svg

<?xml version="1.0" encoding="UTF-8" standalone="no"?>
<svg width="128px" height="128px" viewBox="0 0 128 128" version="1.1" xmlns="http://www.w3.org/2000/svg" xmlns:xlink="http://www.w3.org/1999/xlink">
    <!-- Generator: Sketch 40 (33762) - http://www.bohemiancoding.com/sketch -->
    <title>tab</title>
    <desc>Created with Sketch.</desc>
    <defs></defs>
    <g id="Page-1" stroke="none" stroke-width="1" fill="none" fill-rule="evenodd">
        <g id="tab" fill="#000000">
            <path d="M78.9211904,0.0520409302 L49.0788096,0.0520409302 C47.2136608,0.0520409302 45.8814117,1.65073996 45.8814117,3.51588871 L45.8814117,10.1771345 C45.8814117,12.0422833 47.4801107,13.6409823 49.0788096,13.6409823 L78.9211904,13.6409823 C80.7863392,13.6409823 82.1185883,12.0422833 82.1185883,10.1771345 L82.1185883,3.51588871 C82.3850382,1.65073996 80.7863392,0.0520409302 78.9211904,0.0520409302 L78.9211904,0.0520409302 Z M124.484111,0.0520409302 L94.6417303,0.0520409302 C92.7765815,0.0520409302 91.1778825,1.65073996 91.1778825,3.51588871 L91.1778825,10.1771345 C91.1778825,12.0422833 92.7765815,13.6409823 94.6417303,13.6409823 L124.484111,13.6409823 C126.34926,13.3745325 127.947959,12.0422833 127.947959,10.1771345 L127.947959,3.51588871 C127.947959,1.65073996 126.34926,0.0520409302 124.484111,0.0520409302 L124.484111,0.0520409302 Z M124.484111,22.4338266 L40.0195154,22.4338266 C38.1543666,22.4338266 36.5556676,20.8351276 36.5556676,18.9699789 L36.5556676,3.51588871 C36.5556676,1.65073996 34.9569686,0.0520409302 33.0918198,0.0520409302 L3.51588871,0.0520409302 C1.65073996,0.0520409302 0.0520409302,1.65073996 0.0520409302,3.51588871 L0.0520409302,124.750561 C0.0520409302,126.34926 1.65073996,127.947959 3.51588871,127.947959 L124.484111,127.947959 C126.34926,127.947959 127.947959,126.34926 127.947959,124.484111 L127.947959,25.8976744 C127.947959,24.0325257 126.34926,22.4338266 124.484111,22.4338266 L124.484111,22.4338266 Z" id="Shape"></path>
        </g>
    </g>
</svg>

<svg width="128" height="128" xmlns="http://www.w3.org/2000/svg"><path d="M78.921.052H49.08c-1.865 0-3.198 1.599-3.198 3.464v6.661c0 1.865 1.6 3.464 3.198 3.464h29.84c1.865 0 3.198-1.599 3.198-3.464V3.516C82.385 1.65 80.786.052 78.92.052zm45.563 0H94.642c-1.865 0-3.464 1.599-3.464 3.464v6.661c0 1.865 1.599 3.464 3.464 3.464h29.842c1.865-.266 3.464-1.599 3.464-3.464V3.516c0-1.865-1.599-3.464-3.464-3.464zm0 22.382H40.02c-1.866 0-3.464-1.599-3.464-3.464V3.516c0-1.865-1.599-3.464-3.464-3.464H3.516C1.65.052.052 1.651.052 3.516V124.75c0 1.598 1.599 3.197 3.464 3.197h120.968c1.865 0 3.464-1.599 3.464-3.464V25.898c0-1.865-1.599-3.464-3.464-3.464z" fill-rule="evenodd"/></svg>
